X: 53
T:Farewell to Leitrim
R:Reel
S:Paul O'Shaughnessy, Dublin (fiddle)
D:Television broadcast
H:From Johnny Doherty
N:As played
Z:Bernie Stocks
M:4/4
K:D
fe || c-dAG FADF | E=c~c2 Eccd | (3.=c.c.B cA BcAG | (3.F.G.F EF DEFA |
dcAG F-GDE | FGAB +=c2E2+AB |(3.=c.c.B cA {d}(3BAB AG | (3.F.G.F EG FDDg ||
fd(3.d.d.d fdge | fd(3.d.d.d cdeg | fd(3.d.d.d fdad | (3.f.a.f eg fddg |
fd(3.d.d.d ad(3.d.d.d | e=c(3.c.c.c gcef |(3.a.a.f ge fged | ceag (3.f.a.f ec ||
<end>
<start>
